Newaita-dark/mimetypes/256/application-x-lzop.svg

<?xml version="1.0" encoding="UTF-8"?>
<svg xmlns="http://www.w3.org/2000/svg" xmlns:xlink="http://www.w3.org/1999/xlink" width="256pt" height="256pt" viewBox="0 0 256 256" version="1.1">
<defs>
<linearGradient id="linear0" gradientUnits="userSpaceOnUse" x1="254" y1="233.5" x2="254" y2="254.666672" gradientTransform="matrix(0.500048,0,0,0.500048,-0.0000305205,107.510281)">
<stop offset="0" style="stop-color:rgb(0%,0%,0%);stop-opacity:0.27451;"/>
<stop offset="1" style="stop-color:rgb(0%,0%,0%);stop-opacity:0;"/>
</linearGradient>
<radialGradient id="radial0" gradientUnits="userSpaceOnUse" cx="450.908936" cy="189.579361" fx="450.908936" fy="189.579361" r="21.166656" gradientTransform="matrix(0.00000139336,-0.62506,-1.125108,-0.000000812309,424.98344,508.762661)">
<stop offset="0" style="stop-color:rgb(0%,0%,0%);stop-opacity:0.313725;"/>
<stop offset="0.222222" style="stop-color:rgb(0%,0%,0%);stop-opacity:0.27451;"/>
<stop offset="1" style="stop-color:rgb(0%,0%,0%);stop-opacity:0;"/>
</radialGradient>
<radialGradient id="radial1" gradientUnits="userSpaceOnUse" cx="450.908936" cy="189.579361" fx="450.908936" fy="189.579361" r="21.166656" gradientTransform="matrix(-0.00000139336,0.62506,1.125108,0.000000812309,-169.636162,-60.219831)">
<stop offset="0" style="stop-color:rgb(0%,0%,0%);stop-opacity:0.313725;"/>
<stop offset="0.222222" style="stop-color:rgb(0%,0%,0%);stop-opacity:0.27451;"/>
<stop offset="1" style="stop-color:rgb(0%,0%,0%);stop-opacity:0;"/>
</radialGradient>
<radialGradient id="radial2" gradientUnits="userSpaceOnUse" cx="450.908936" cy="189.579361" fx="450.908936" fy="189.579361" r="21.166656" gradientTransform="matrix(-0.00000139336,-0.62506,1.125108,-0.000000812309,-169.636162,508.762661)">
<stop offset="0" style="stop-color:rgb(0%,0%,0%);stop-opacity:0.313725;"/>
<stop offset="0.222222" style="stop-color:rgb(0%,0%,0%);stop-opacity:0.27451;"/>
<stop offset="1" style="stop-color:rgb(0%,0%,0%);stop-opacity:0;"/>
</radialGradient>
<radialGradient id="radial3" gradientUnits="userSpaceOnUse" cx="450.908936" cy="189.579361" fx="450.908936" fy="189.579361" r="21.166656" gradientTransform="matrix(0.00000139336,0.62506,-1.125108,0.000000812309,424.983428,-60.219835)">
<stop offset="0" style="stop-color:rgb(0%,0%,0%);stop-opacity:0.313725;"/>
<stop offset="0.222222" style="stop-color:rgb(0%,0%,0%);stop-opacity:0.27451;"/>
<stop offset="1" style="stop-color:rgb(0%,0%,0%);stop-opacity:0;"/>
</radialGradient>
<linearGradient id="linear1" gradientUnits="userSpaceOnUse" x1="254" y1="-168.666656" x2="254" y2="233.5" gradientTransform="matrix(0.500048,0,0,0.500048,0,107.510266)">
<stop offset="0" style="stop-color:rgb(90.196078%,93.333333%,61.176471%);stop-opacity:1;"/>
<stop offset="1" style="stop-color:rgb(86.27451%,90.588235%,45.882353%);stop-opacity:1;"/>
</linearGradient>
<linearGradient id="linear2" gradientUnits="userSpaceOnUse" x1="148.166687" y1="-168.666809" x2="148.166687" y2="233.499863" gradientTransform="matrix(1,0,0,1,-31.750023,0.000142415)">
<stop offset="0" style="stop-color:rgb(86.27451%,90.588235%,45.882353%);stop-opacity:1;"/>
<stop offset="1" style="stop-color:rgb(83.137255%,88.235294%,34.117647%);stop-opacity:1;"/>
</linearGradient>
<linearGradient id="linear3" gradientUnits="userSpaceOnUse" x1="148.166687" y1="-168.666809" x2="148.166687" y2="233.499863" gradientTransform="matrix(1,0,0,1,201.083313,0.000142415)">
<stop offset="0" style="stop-color:rgb(86.27451%,90.588235%,45.882353%);stop-opacity:1;"/>
<stop offset="1" style="stop-color:rgb(83.137255%,88.235294%,34.117647%);stop-opacity:1;"/>
</linearGradient>
<linearGradient id="linear4" gradientUnits="userSpaceOnUse" x1="960" y1="1115.118164" x2="960" y2="675.118103" gradientTransform="matrix(0.264583,0,0,0.264583,-116.416687,-215)">
<stop offset="0" style="stop-color:rgb(74.117647%,74.117647%,74.117647%);stop-opacity:1;"/>
<stop offset="1" style="stop-color:rgb(87.843137%,87.843137%,87.843137%);stop-opacity:1;"/>
</linearGradient>
<linearGradient id="linear5" gradientUnits="userSpaceOnUse" x1="164.041641" y1="64.166664" x2="164.041641" y2="0.666662" gradientTransform="matrix(1,0,0,1,-21.16667,42.33334)">
<stop offset="0" style="stop-color:rgb(74.117647%,74.117647%,74.117647%);stop-opacity:1;"/>
<stop offset="1" style="stop-color:rgb(87.843137%,87.843137%,87.843137%);stop-opacity:1;"/>
</linearGradient>
<linearGradient id="linear6" gradientUnits="userSpaceOnUse" x1="158.75" y1="-115.75" x2="158.75" y2="286.416656" gradientTransform="matrix(1,0,0,1,-21.16667,-52.91666)">
<stop offset="0" style="stop-color:rgb(90.196078%,93.333333%,61.176471%);stop-opacity:1;"/>
<stop offset="1" style="stop-color:rgb(86.27451%,90.588235%,45.882353%);stop-opacity:1;"/>
</linearGradient>
<linearGradient id="linear7" gradientUnits="userSpaceOnUse" x1="960" y1="1115.118164" x2="960" y2="675.118103" gradientTransform="matrix(0.264583,0,0,0.264583,116.416649,-215)">
<stop offset="0" style="stop-color:rgb(74.117647%,74.117647%,74.117647%);stop-opacity:1;"/>
<stop offset="1" style="stop-color:rgb(87.843137%,87.843137%,87.843137%);stop-opacity:1;"/>
</linearGradient>
<linearGradient id="linear8" gradientUnits="userSpaceOnUse" x1="164.041641" y1="64.166664" x2="164.041641" y2="0.666662" gradientTransform="matrix(1,0,0,1,211.666672,42.33334)">
<stop offset="0" style="stop-color:rgb(74.117647%,74.117647%,74.117647%);stop-opacity:1;"/>
<stop offset="1" style="stop-color:rgb(87.843137%,87.843137%,87.843137%);stop-opacity:1;"/>
</linearGradient>
<linearGradient id="linear9" gradientUnits="userSpaceOnUse" x1="158.75" y1="-115.75" x2="158.75" y2="286.416656" gradientTransform="matrix(1,0,0,1,211.666672,-52.91666)">
<stop offset="0" style="stop-color:rgb(90.196078%,93.333333%,61.176471%);stop-opacity:1;"/>
<stop offset="1" style="stop-color:rgb(86.27451%,90.588235%,45.882353%);stop-opacity:1;"/>
</linearGradient>
</defs>
<g id="surface1">
<path style=" stroke:none;fill-rule:nonzero;fill:rgb(0%,0%,0%);fill-opacity:0.196078;" d="M 31.753906 224.269531 C 25.890625 224.269531 21.167969 219.550781 21.167969 213.6875 L 21.167969 212.363281 C 21.167969 218.226562 25.890625 222.949219 31.753906 222.949219 L 222.269531 222.949219 C 228.136719 222.949219 232.855469 218.226562 232.855469 212.363281 L 232.855469 213.6875 C 232.855469 219.550781 228.136719 224.269531 222.269531 224.269531 Z M 31.753906 224.269531 "/>
<path style=" stroke:none;fill-rule:nonzero;fill:url(#linear0);" d="M 41.015625 224.269531 L 214.332031 224.269531 L 214.332031 234.855469 L 41.015625 234.855469 Z M 41.015625 224.269531 "/>
<path style=" stroke:none;fill-rule:nonzero;fill:url(#radial0);" d="M 214.332031 224.269531 L 235.5 224.269531 L 235.5 213.6875 L 214.332031 213.6875 Z M 214.332031 224.269531 "/>
<path style=" stroke:none;fill-rule:nonzero;fill:url(#radial1);" d="M 41.015625 224.269531 L 19.84375 224.269531 L 19.84375 234.855469 L 41.015625 234.855469 Z M 41.015625 224.269531 "/>
<path style=" stroke:none;fill-rule:nonzero;fill:url(#radial2);" d="M 41.015625 224.269531 L 19.84375 224.269531 L 19.84375 213.6875 L 41.015625 213.6875 Z M 41.015625 224.269531 "/>
<path style=" stroke:none;fill-rule:nonzero;fill:url(#radial3);" d="M 214.332031 224.269531 L 235.5 224.269531 L 235.5 234.855469 L 214.332031 234.855469 Z M 214.332031 224.269531 "/>
<path style=" stroke:none;fill-rule:nonzero;fill:url(#linear1);" d="M 29.105469 23.167969 L 224.917969 23.167969 C 229.300781 23.167969 232.855469 26.722656 232.855469 31.105469 L 232.855469 216.332031 C 232.855469 220.71875 229.300781 224.269531 224.917969 224.269531 L 29.105469 224.269531 C 24.722656 224.269531 21.167969 220.71875 21.167969 216.332031 L 21.167969 31.105469 C 21.167969 26.722656 24.722656 23.167969 29.105469 23.167969 Z M 29.105469 23.167969 "/>
<path style=" stroke:none;fill-rule:nonzero;fill:rgb(100%,100%,100%);fill-opacity:0.392157;" d="M 29.105469 23.167969 C 24.710938 23.167969 21.167969 26.710938 21.167969 31.105469 L 21.167969 33.753906 C 21.167969 29.355469 24.710938 25.816406 29.105469 25.816406 L 224.917969 25.816406 C 229.316406 25.816406 232.855469 29.355469 232.855469 33.753906 L 232.855469 31.105469 C 232.855469 26.710938 229.316406 23.167969 224.917969 23.167969 Z M 29.105469 23.167969 "/>
<path style=" stroke:none;fill-rule:nonzero;fill:rgb(1.960784%,1.960784%,1.960784%);fill-opacity:0.235294;" d="M 29.105469 224.269531 C 24.710938 224.269531 21.167969 220.730469 21.167969 216.332031 L 21.167969 213.6875 C 21.167969 218.085938 24.710938 221.625 29.105469 221.625 L 224.917969 221.625 C 229.316406 221.625 232.855469 218.085938 232.855469 213.6875 L 232.855469 216.332031 C 232.855469 220.730469 229.316406 224.269531 224.917969 224.269531 Z M 29.105469 224.269531 "/>
<path style=" stroke:none;fill-rule:nonzero;fill:rgb(12.941177%,12.941177%,12.941177%);fill-opacity:1;" d="M 29.105469 22.417969 C 24.308594 22.417969 20.417969 26.308594 20.417969 31.109375 L 20.417969 216.332031 C 20.417969 221.132812 24.308594 225.023438 29.105469 225.023438 L 224.917969 225.023438 C 229.71875 225.023438 233.605469 221.132812 233.605469 216.332031 L 233.605469 31.109375 C 233.605469 26.308594 229.71875 22.417969 224.917969 22.417969 Z M 29.105469 23.917969 L 224.917969 23.917969 C 228.914062 23.917969 232.105469 27.113281 232.105469 31.109375 L 232.105469 216.332031 C 232.105469 220.328125 228.914062 223.519531 224.917969 223.519531 L 29.105469 223.519531 C 25.113281 223.519531 21.917969 220.328125 21.917969 216.332031 L 21.917969 31.109375 C 21.917969 27.113281 25.113281 23.917969 29.105469 23.917969 Z M 29.105469 23.917969 "/>
<path style="fill-rule:nonzero;fill:url(#linear2);stroke-width:3;stroke-linecap:round;stroke-linejoin:miter;stroke:rgb(12.941177%,12.941177%,12.941177%);stroke-opacity:1;stroke-miterlimit:4;" d="M 105.833643 -62.834844 L 169.335392 -62.834844 C 175.178584 -62.834844 179.920318 -58.093109 179.920318 -52.249917 L 179.920318 106.500548 C 179.920318 112.34374 175.178584 117.085475 169.335392 117.085475 L 105.833643 117.085475 C 99.990451 117.085475 95.248717 112.34374 95.248717 106.500548 L 95.248717 -52.249917 C 95.248717 -58.093109 99.990451 -62.834844 105.833643 -62.834844 Z M 105.833643 -62.834844 " transform="matrix(0.500048,0,0,0.500048,0,107.510266)"/>
<path style="fill-rule:nonzero;fill:url(#linear3);stroke-width:3;stroke-linecap:round;stroke-linejoin:miter;stroke:rgb(12.941177%,12.941177%,12.941177%);stroke-opacity:1;stroke-miterlimit:4;" d="M 338.662972 -62.834844 L 402.16472 -62.834844 C 408.007912 -62.834844 412.749647 -58.093109 412.749647 -52.249917 L 412.749647 106.500548 C 412.749647 112.34374 408.007912 117.085475 402.16472 117.085475 L 338.662972 117.085475 C 332.81978 117.085475 328.085857 112.34374 328.085857 106.500548 L 328.085857 -52.249917 C 328.085857 -58.093109 332.81978 -62.834844 338.662972 -62.834844 Z M 338.662972 -62.834844 " transform="matrix(0.500048,0,0,0.500048,0,107.510266)"/>
<path style=" stroke:none;fill-rule:nonzero;fill:rgb(0%,0%,0%);fill-opacity:0.196078;" d="M 21.167969 122.398438 L 232.855469 122.398438 L 232.855469 123.71875 L 21.167969 123.71875 Z M 21.167969 122.398438 "/>
<path style=" stroke:none;fill-rule:nonzero;fill:rgb(90.196079%,90.196079%,90.196079%);fill-opacity:0.588235;" d="M 21.167969 123.71875 L 232.855469 123.71875 L 232.855469 125.042969 L 21.167969 125.042969 Z M 21.167969 123.71875 "/>
<path style=" stroke:none;fill-rule:nonzero;fill:rgb(12.941177%,12.941177%,12.941177%);fill-opacity:0.992157;" d="M 21.167969 123.058594 L 232.855469 123.058594 L 232.855469 124.382812 L 21.167969 124.382812 Z M 21.167969 123.058594 "/>
<path style="fill-rule:nonzero;fill:url(#linear4);stroke-width:3;stroke-linecap:round;stroke-linejoin:round;stroke:rgb(12.941177%,12.941177%,12.941177%);stroke-opacity:1;stroke-miterlimit:4;" d="M 116.41857 -36.376433 C 110.551943 -36.376433 105.833643 -31.658133 105.833643 -25.791506 L 105.833643 69.457211 C 105.833643 75.323838 110.551943 80.042137 116.41857 80.042137 L 158.750465 80.042137 C 164.609281 80.042137 169.335392 75.323838 169.335392 69.457211 L 169.335392 -25.791506 C 169.335392 -31.658133 164.609281 -36.376433 158.750465 -36.376433 Z M 119.058943 -28.439691 L 156.10228 -28.439691 C 159.0395 -28.439691 161.39865 -26.080541 161.39865 -23.143321 L 161.39865 66.809026 C 161.39865 69.746246 159.0395 72.105395 156.10228 72.105395 L 119.058943 72.105395 C 116.129535 72.105395 113.770385 69.746246 113.770385 66.809026 L 113.770385 -23.143321 C 113.770385 -26.080541 116.129535 -28.439691 119.058943 -28.439691 Z M 119.058943 -28.439691 " transform="matrix(0.500048,0,0,0.500048,0,107.510266)"/>
<path style="fill-rule:nonzero;fill:url(#linear5);stroke-width:3;stroke-linecap:round;stroke-linejoin:miter;stroke:rgb(12.941177%,12.941177%,12.941177%);stroke-opacity:1;stroke-miterlimit:4;" d="M 127.003497 42.9988 L 148.165538 42.9988 C 154.00873 42.9988 158.750465 47.740535 158.750465 53.583727 L 158.750465 95.915622 C 158.750465 101.758814 154.00873 106.500548 148.165538 106.500548 L 127.003497 106.500548 C 121.152493 106.500548 116.41857 101.758814 116.41857 95.915622 L 116.41857 53.583727 C 116.41857 47.740535 121.152493 42.9988 127.003497 42.9988 Z M 127.003497 42.9988 " transform="matrix(0.500048,0,0,0.500048,0,107.510266)"/>
<path style="fill-rule:nonzero;fill:url(#linear6);stroke-width:3;stroke-linecap:round;stroke-linejoin:miter;stroke:rgb(12.941177%,12.941177%,12.941177%);stroke-opacity:1;stroke-miterlimit:4;" d="M 127.003497 -52.249917 L 148.165538 -52.249917 C 154.00873 -52.249917 158.750465 -47.508182 158.750465 -41.66499 L 158.750465 -25.791506 C 158.750465 -19.948314 154.00873 -15.206579 148.165538 -15.206579 L 127.003497 -15.206579 C 121.152493 -15.206579 116.41857 -19.948314 116.41857 -25.791506 L 116.41857 -41.66499 C 116.41857 -47.508182 121.152493 -52.249917 127.003497 -52.249917 Z M 127.003497 -52.249917 " transform="matrix(0.500048,0,0,0.500048,0,107.510266)"/>
<path style="fill-rule:nonzero;fill:url(#linear7);stroke-width:3;stroke-linecap:round;stroke-linejoin:round;stroke:rgb(12.941177%,12.941177%,12.941177%);stroke-opacity:1;stroke-miterlimit:4;" d="M 349.247898 -36.376433 C 343.389083 -36.376433 338.662972 -31.658133 338.662972 -25.791506 L 338.662972 69.457211 C 338.662972 75.323838 343.389083 80.042137 349.247898 80.042137 L 391.579793 80.042137 C 397.446421 80.042137 402.16472 75.323838 402.16472 69.457211 L 402.16472 -25.791506 C 402.16472 -31.658133 397.446421 -36.376433 391.579793 -36.376433 Z M 351.896083 -28.439691 L 388.939421 -28.439691 C 391.868828 -28.439691 394.227978 -26.080541 394.227978 -23.143321 L 394.227978 66.809026 C 394.227978 69.746246 391.868828 72.105395 388.939421 72.105395 L 351.896083 72.105395 C 348.966675 72.105395 346.607526 69.746246 346.607526 66.809026 L 346.607526 -23.143321 C 346.607526 -26.080541 348.966675 -28.439691 351.896083 -28.439691 Z M 351.896083 -28.439691 " transform="matrix(0.500048,0,0,0.500048,0,107.510266)"/>
<path style="fill-rule:nonzero;fill:url(#linear8);stroke-width:3;stroke-linecap:round;stroke-linejoin:miter;stroke:rgb(12.941177%,12.941177%,12.941177%);stroke-opacity:1;stroke-miterlimit:4;" d="M 359.832825 42.9988 L 381.002679 42.9988 C 386.845871 42.9988 391.579793 47.740535 391.579793 53.583727 L 391.579793 95.915622 C 391.579793 101.758814 386.845871 106.500548 381.002679 106.500548 L 359.832825 106.500548 C 353.989633 106.500548 349.247898 101.758814 349.247898 95.915622 L 349.247898 53.583727 C 349.247898 47.740535 353.989633 42.9988 359.832825 42.9988 Z M 359.832825 42.9988 " transform="matrix(0.500048,0,0,0.500048,0,107.510266)"/>
<path style="fill-rule:nonzero;fill:url(#linear9);stroke-width:3;stroke-linecap:round;stroke-linejoin:miter;stroke:rgb(12.941177%,12.941177%,12.941177%);stroke-opacity:1;stroke-miterlimit:4;" d="M 359.832825 -52.249917 L 381.002679 -52.249917 C 386.845871 -52.249917 391.579793 -47.508182 391.579793 -41.66499 L 391.579793 -25.791506 C 391.579793 -19.948314 386.845871 -15.206579 381.002679 -15.206579 L 359.832825 -15.206579 C 353.989633 -15.206579 349.247898 -19.948314 349.247898 -25.791506 L 349.247898 -41.66499 C 349.247898 -47.508182 353.989633 -52.249917 359.832825 -52.249917 Z M 359.832825 -52.249917 " transform="matrix(0.500048,0,0,0.500048,0,107.510266)"/>
</g>
</svg>

<svg xmlns="http://www.w3.org/2000/svg" width="256pt" height="256pt" viewBox="0 0 256 256"><defs><linearGradient id="a" gradientUnits="userSpaceOnUse" x1="254" y1="233.5" x2="254" y2="254.667" gradientTransform="matrix(.50005 0 0 .50005 0 107.51)"><stop offset="0" stop-opacity=".275"/><stop offset="1" stop-opacity="0"/></linearGradient><radialGradient id="b" gradientUnits="userSpaceOnUse" cx="450.909" cy="189.579" fx="450.909" fy="189.579" r="21.167" gradientTransform="matrix(0 -.62506 -1.1251 0 424.983 508.763)"><stop offset="0" stop-opacity=".314"/><stop offset=".222" stop-opacity=".275"/><stop offset="1" stop-opacity="0"/></radialGradient><radialGradient id="c" gradientUnits="userSpaceOnUse" cx="450.909" cy="189.579" fx="450.909" fy="189.579" r="21.167" gradientTransform="matrix(0 .62506 1.1251 0 -169.636 -60.22)"><stop offset="0" stop-opacity=".314"/><stop offset=".222" stop-opacity=".275"/><stop offset="1" stop-opacity="0"/></radialGradient><radialGradient id="d" gradientUnits="userSpaceOnUse" cx="450.909" cy="189.579" fx="450.909" fy="189.579" r="21.167" gradientTransform="matrix(0 -.62506 1.1251 0 -169.636 508.763)"><stop offset="0" stop-opacity=".314"/><stop offset=".222" stop-opacity=".275"/><stop offset="1" stop-opacity="0"/></radialGradient><radialGradient id="e" gradientUnits="userSpaceOnUse" cx="450.909" cy="189.579" fx="450.909" fy="189.579" r="21.167" gradientTransform="matrix(0 .62506 -1.1251 0 424.983 -60.22)"><stop offset="0" stop-opacity=".314"/><stop offset=".222" stop-opacity=".275"/><stop offset="1" stop-opacity="0"/></radialGradient><linearGradient id="f" gradientUnits="userSpaceOnUse" x1="254" y1="-168.667" x2="254" y2="233.5" gradientTransform="matrix(.50005 0 0 .50005 0 107.51)"><stop offset="0" stop-color="#e6ee9c"/><stop offset="1" stop-color="#dce775"/></linearGradient><linearGradient id="g" gradientUnits="userSpaceOnUse" x1="148.167" y1="-168.667" x2="148.167" y2="233.5" gradientTransform="translate(-31.75)"><stop offset="0" stop-color="#dce775"/><stop offset="1" stop-color="#d4e157"/></linearGradient><linearGradient id="h" gradientUnits="userSpaceOnUse" x1="148.167" y1="-168.667" x2="148.167" y2="233.5" gradientTransform="translate(201.083)"><stop offset="0" stop-color="#dce775"/><stop offset="1" stop-color="#d4e157"/></linearGradient><linearGradient id="i" gradientUnits="userSpaceOnUse" x1="960" y1="1115.118" x2="960" y2="675.118" gradientTransform="matrix(.26458 0 0 .26458 -116.417 -215)"><stop offset="0" stop-color="#bdbdbd"/><stop offset="1" stop-color="#e0e0e0"/></linearGradient><linearGradient id="j" gradientUnits="userSpaceOnUse" x1="164.042" y1="64.167" x2="164.042" y2=".667" gradientTransform="translate(-21.167 42.333)"><stop offset="0" stop-color="#bdbdbd"/><stop offset="1" stop-color="#e0e0e0"/></linearGradient><linearGradient id="k" gradientUnits="userSpaceOnUse" x1="158.75" y1="-115.75" x2="158.75" y2="286.417" gradientTransform="translate(-21.167 -52.917)"><stop offset="0" stop-color="#e6ee9c"/><stop offset="1" stop-color="#dce775"/></linearGradient><linearGradient id="l" gradientUnits="userSpaceOnUse" x1="960" y1="1115.118" x2="960" y2="675.118" gradientTransform="matrix(.26458 0 0 .26458 116.417 -215)"><stop offset="0" stop-color="#bdbdbd"/><stop offset="1" stop-color="#e0e0e0"/></linearGradient><linearGradient id="m" gradientUnits="userSpaceOnUse" x1="164.042" y1="64.167" x2="164.042" y2=".667" gradientTransform="translate(211.667 42.333)"><stop offset="0" stop-color="#bdbdbd"/><stop offset="1" stop-color="#e0e0e0"/></linearGradient><linearGradient id="n" gradientUnits="userSpaceOnUse" x1="158.75" y1="-115.75" x2="158.75" y2="286.417" gradientTransform="translate(211.667 -52.917)"><stop offset="0" stop-color="#e6ee9c"/><stop offset="1" stop-color="#dce775"/></linearGradient></defs><path d="M31.754 224.27a10.561 10.561 0 0 1-10.586-10.583v-1.324a10.564 10.564 0 0 0 10.586 10.586H222.27a10.562 10.562 0 0 0 10.585-10.586v1.325a10.559 10.559 0 0 1-10.585 10.582zm0 0" fill-opacity=".196"/><path d="M41.016 224.27h173.316v10.585H41.016zm0 0" fill="url(#a)"/><path d="M214.332 224.27H235.5v-10.583h-21.168zm0 0" fill="url(#b)"/><path d="M41.016 224.27H19.844v10.585h21.172zm0 0" fill="url(#c)"/><path d="M41.016 224.27H19.844v-10.583h21.172zm0 0" fill="url(#d)"/><path d="M214.332 224.27H235.5v10.585h-21.168zm0 0" fill="url(#e)"/><path d="M29.105 23.168h195.813a7.939 7.939 0 0 1 7.937 7.937v185.227a7.936 7.936 0 0 1-7.937 7.938H29.105a7.936 7.936 0 0 1-7.937-7.938V31.105a7.939 7.939 0 0 1 7.937-7.937zm0 0" fill="url(#f)"/><path d="M29.105 23.168a7.924 7.924 0 0 0-7.937 7.937v2.649a7.921 7.921 0 0 1 7.937-7.938h195.813a7.919 7.919 0 0 1 7.937 7.938v-2.649a7.921 7.921 0 0 0-7.937-7.937zm0 0" fill="#fff" fill-opacity=".392"/><path d="M29.105 224.27a7.921 7.921 0 0 1-7.937-7.938v-2.644a7.921 7.921 0 0 0 7.937 7.937h195.813a7.919 7.919 0 0 0 7.937-7.938v2.645a7.919 7.919 0 0 1-7.937 7.938zm0 0" fill="#050505" fill-opacity=".235"/><path d="M29.105 22.418c-4.796 0-8.687 3.89-8.687 8.691v185.223c0 4.8 3.89 8.691 8.687 8.691h195.813c4.8 0 8.687-3.89 8.687-8.691V31.109c0-4.8-3.886-8.691-8.687-8.691zm0 1.5h195.813a7.157 7.157 0 0 1 7.187 7.191v185.223a7.154 7.154 0 0 1-7.187 7.188H29.105a7.156 7.156 0 0 1-7.187-7.188V31.109a7.16 7.16 0 0 1 7.187-7.191zm0 0" fill="#212121"/><path d="M105.834-62.835h63.501c5.844 0 10.585 4.742 10.585 10.585V106.5c0 5.844-4.741 10.585-10.585 10.585h-63.501c-5.844 0-10.585-4.741-10.585-10.584V-52.25c0-5.844 4.741-10.586 10.585-10.586zm0 0" transform="matrix(.50005 0 0 .50005 0 107.51)" fill="url(#g)" stroke-width="3" stroke-linecap="round" stroke="#212121"/><path d="M338.663-62.835h63.502c5.843 0 10.585 4.742 10.585 10.585V106.5c0 5.844-4.742 10.585-10.585 10.585h-63.502c-5.843 0-10.577-4.741-10.577-10.584V-52.25c0-5.844 4.734-10.586 10.577-10.586zm0 0" transform="matrix(.50005 0 0 .50005 0 107.51)" fill="url(#h)" stroke-width="3" stroke-linecap="round" stroke="#212121"/><path d="M21.168 122.398h211.687v1.32H21.168zm0 0" fill-opacity=".196"/><path d="M21.168 123.719h211.687v1.324H21.168zm0 0" fill="#e6e6e6" fill-opacity=".588"/><path d="M21.168 123.059h211.687v1.324H21.168zm0 0" fill="#212121" fill-opacity=".992"/><path d="M116.419-36.376a10.558 10.558 0 0 0-10.585 10.584v95.25a10.558 10.558 0 0 0 10.585 10.584h42.331a10.563 10.563 0 0 0 10.585-10.585v-95.249a10.563 10.563 0 0 0-10.585-10.584zm2.64 7.936h37.043a5.28 5.28 0 0 1 5.297 5.297v89.952a5.28 5.28 0 0 1-5.297 5.296H119.06a5.28 5.28 0 0 1-5.289-5.296v-89.952a5.28 5.28 0 0 1 5.289-5.297zm0 0" transform="matrix(.50005 0 0 .50005 0 107.51)" fill="url(#i)" stroke-width="3" stroke-linecap="round" stroke-linejoin="round" stroke="#212121"/><path d="M127.003 42.999h21.163c5.843 0 10.584 4.742 10.584 10.585v42.332c0 5.843-4.741 10.585-10.584 10.585h-21.163c-5.85 0-10.584-4.742-10.584-10.585V53.584c0-5.843 4.733-10.585 10.584-10.585zm0 0" transform="matrix(.50005 0 0 .50005 0 107.51)" fill="url(#j)" stroke-width="3" stroke-linecap="round" stroke="#212121"/><path d="M127.003-52.25h21.163c5.843 0 10.584 4.742 10.584 10.585v15.873c0 5.844-4.741 10.585-10.584 10.585h-21.163c-5.85 0-10.584-4.741-10.584-10.585v-15.873c0-5.843 4.733-10.585 10.584-10.585zm0 0" transform="matrix(.50005 0 0 .50005 0 107.51)" fill="url(#k)" stroke-width="3" stroke-linecap="round" stroke="#212121"/><path d="M349.248-36.376a10.563 10.563 0 0 0-10.585 10.584v95.25a10.563 10.563 0 0 0 10.585 10.584h42.332a10.558 10.558 0 0 0 10.585-10.585v-95.249a10.558 10.558 0 0 0-10.585-10.584zm2.648 7.936h37.043a5.28 5.28 0 0 1 5.289 5.297v89.952a5.28 5.28 0 0 1-5.289 5.296h-37.043a5.28 5.28 0 0 1-5.288-5.296v-89.952a5.28 5.28 0 0 1 5.288-5.297zm0 0" transform="matrix(.50005 0 0 .50005 0 107.51)" fill="url(#l)" stroke-width="3" stroke-linecap="round" stroke-linejoin="round" stroke="#212121"/><path d="M359.833 42.999h21.17c5.843 0 10.577 4.742 10.577 10.585v42.332c0 5.843-4.734 10.585-10.577 10.585h-21.17c-5.843 0-10.585-4.742-10.585-10.585V53.584c0-5.843 4.742-10.585 10.585-10.585zm0 0" transform="matrix(.50005 0 0 .50005 0 107.51)" fill="url(#m)" stroke-width="3" stroke-linecap="round" stroke="#212121"/><path d="M359.833-52.25h21.17c5.843 0 10.577 4.742 10.577 10.585v15.873c0 5.844-4.734 10.585-10.577 10.585h-21.17c-5.843 0-10.585-4.741-10.585-10.585v-15.873c0-5.843 4.742-10.585 10.585-10.585zm0 0" transform="matrix(.50005 0 0 .50005 0 107.51)" fill="url(#n)" stroke-width="3" stroke-linecap="round" stroke="#212121"/></svg>
